img/small-logo-desktop.svg

<svg width="71" height="60" viewBox="0 0 71 60" fill="none" xmlns="http://www.w3.org/2000/svg">
<path d="M59.8824 24.2098C58.1585 20.0433 55.3821 16.4052 51.8299 13.6582C48.2778 10.9111 44.0739 9.1511 39.6373 8.55346C35.2007 7.95581 30.6863 8.54142 26.544 10.2519C22.4017 11.9624 18.7761 14.7381 16.0286 18.3023C13.2811 21.8666 11.5076 26.0949 10.8849 30.5658C10.2622 35.0368 10.8119 39.5944 12.4794 43.7842C14.1469 47.9741 16.8739 51.6501 20.3886 54.4457C23.9033 57.2413 28.083 59.059 32.5111 59.7176C31.931 57.6093 31.341 55.2791 30.821 52.8077C32.3338 53.7976 33.9261 54.658 35.5812 55.38V55.38C35.5812 55.38 35.7012 57.5589 35.8612 59.9899C37.6496 60.021 39.4362 59.8621 41.1915 59.5158C41.1462 59.2623 41.1462 59.0027 41.1915 58.7492C41.4815 56.8628 42.2816 53.4634 42.4416 51.2744C43.5949 50.1862 44.5733 48.9236 45.3417 47.532V47.532L45.2817 47.9758C44.7317 52.2731 43.5816 56.8628 42.8816 58.1338C42.655 58.5546 42.376 58.9444 42.0516 59.2939C45.6715 58.4373 49.0635 56.7968 51.9923 54.4862C54.9211 52.1756 57.3167 49.25 59.013 45.9125C60.7092 42.5749 61.6656 38.9052 61.8157 35.1577C61.9658 31.4102 61.3062 27.6746 59.8824 24.2098V24.2098ZM58.4124 28.033C57.9723 28.4667 57.0623 28.7593 56.9123 27.4479C56.7623 26.1365 56.7223 25.2186 56.7223 25.2186C56.7223 25.2186 54.7922 21.7586 54.0721 21.7182C53.3521 21.6779 48.2419 25.2186 46.8918 26.762C45.7217 28.0632 45.4917 27.9724 45.4917 30.2623C45.4917 31.9872 45.7117 38.5037 45.5917 43.4869L37.4413 45.6759C34.8795 46.4175 32.2743 46.997 29.6409 47.4109L28.6409 41.5299H28.5009L25.9308 28.2448C25.9308 28.2448 22.1206 26.7922 20.7205 26.3988C20.0631 26.1087 19.3372 26.0144 18.6283 26.127C17.9195 26.2396 17.2575 26.5544 16.7203 27.0343C16.1723 27.5183 15.7341 28.1157 15.4355 28.7859C15.137 29.4561 14.9851 30.1833 14.9902 30.918C15.2016 31.3868 15.3625 31.8772 15.4702 32.3806C15.5202 32.8648 14.2702 32.8144 13.4701 32.8144C12.6701 32.8144 12.5501 31.3618 13.1801 29.657C13.6716 28.3462 14.2809 27.0834 15.0002 25.8843C15.5413 24.8133 16.2391 23.8305 17.0703 22.9691C17.0703 22.9691 17.2103 22.6261 18.3204 22.727C19.4304 22.8279 25.6007 23.1607 25.6007 23.1607L25.6507 20.8709C32.3574 19.9368 39.1215 19.4851 45.8917 19.5192C45.8917 20.1345 45.8917 20.7498 45.8917 21.3652C48.4561 20.1847 51.2174 19.5004 54.0321 19.3477C54.1827 19.3439 54.3319 19.3778 54.4663 19.4465C54.6007 19.5151 54.7161 19.6164 54.8022 19.7411C55.1422 20.1749 57.2123 22.7673 57.4523 23.1406C58.1246 24.1097 58.7358 25.1204 59.2824 26.1668C59.095 26.8294 58.8011 27.4564 58.4124 28.0229V28.033Z" fill="#FDC305"/>
<path d="M56.4628 21.8595C56.9328 22.4647 57.3428 22.9993 57.4628 23.1607C58.1351 24.1298 58.7463 25.1406 59.2929 26.187C59.1027 26.8278 58.8123 27.4339 58.4329 27.9825C57.9929 28.4163 57.0828 28.7088 56.9328 27.3975C56.7828 26.0861 56.7228 25.2186 56.7228 25.2186C56.7228 25.2186 54.7927 21.7586 54.0727 21.7182C53.3526 21.6779 48.2424 25.2186 46.8923 26.7619C45.7223 28.0632 45.4922 27.9724 45.4922 30.2623C45.4922 31.7754 45.6623 36.9704 45.6223 41.5905C47.4323 41.7922 50.0925 42.2966 50.8925 43.4869C50.8925 43.4869 50.6025 36.2441 58.7029 40.037C58.7029 40.037 58.9829 30.1614 70.1635 32.6934C66.3627 28.1922 61.7035 24.5079 56.4628 21.8595V21.8595Z" fill="#F06351"/>
<path d="M45.9323 19.5191C45.9729 13.9295 45.5043 8.34781 44.5322 2.84463C44.5322 2.84463 44.3822 1.53327 43.6622 2.60253C43.068 3.88083 42.6636 5.2404 42.4621 6.6375C38.1871 6.36082 33.896 6.47561 29.6415 6.98048C28.8214 4.20644 27.4214 2.94551 26.7513 3.27839C26.0813 3.61128 26.0013 6.58707 26.0013 6.58707L25.6713 20.8709C32.3846 19.9358 39.1554 19.4841 45.9323 19.5191V19.5191Z" fill="#F06351"/>
<path d="M45.3515 47.532C45.4815 46.4526 45.5515 45.0202 45.5915 43.4365L37.4415 45.6254C34.8809 46.3841 32.2758 46.9804 29.6415 47.4109L30.7515 52.4546C30.7515 52.5656 30.7515 52.6765 30.8215 52.7875C32.3342 53.7774 33.9265 54.6378 35.5815 55.3598C38.0002 54.1935 40.3038 52.7986 42.4615 51.1937V51.2542C43.6096 50.1714 44.5845 48.9158 45.3515 47.532V47.532Z" fill="#E55645"/>
<path d="M32.0016 16.3618C31.9516 16.2609 33.0016 17.0477 33.4116 17.2898C33.8216 17.5319 34.0216 17.7135 34.0216 17.885C34.0216 18.0565 33.7616 18.228 33.4016 18.228C33.0416 18.228 32.4816 18.1069 32.4016 17.9657C32.3216 17.8245 33.0016 17.9657 33.3416 17.9657H33.6316C33.0159 17.5113 32.4671 16.9714 32.0016 16.3618Z" fill="black"/>
<path d="M39.5019 16.4727C39.5019 16.4727 38.5019 17.7639 38.4119 17.8244C38.3219 17.885 38.2419 18.1674 38.6019 18.117C39.0152 18.0548 39.4231 17.9603 39.8219 17.8345C39.9319 17.774 39.8919 17.6328 39.7019 17.653C39.5119 17.6731 39.0219 17.7034 38.7019 17.7639L39.5519 16.4828C39.5519 16.4828 39.5819 16.3618 39.5019 16.4727Z" fill="black"/>
<path d="M36.3617 22.6362C36.8253 22.4302 37.2084 22.0756 37.4517 21.6274C37.7317 20.9617 37.4517 20.7095 37.0117 20.6187C36.4064 20.5073 35.7817 20.6297 35.2617 20.9617C34.8717 21.3349 34.9217 21.6981 35.2617 21.9704C35.5995 22.2376 35.9691 22.4613 36.3617 22.6362V22.6362Z" fill="black"/>
<path d="M36.0016 23.9072C35.8868 24.136 35.7308 24.3412 35.5416 24.5124C35.2568 24.7436 34.9067 24.8778 34.5416 24.8958C33.991 24.9503 33.4405 24.7916 33.0016 24.4519C32.8 24.333 32.6206 24.1793 32.4716 23.998C32.3716 23.8881 32.2486 23.802 32.1116 23.7458C32.1116 23.7458 32.8616 27.8917 34.6816 28.5575C36.5016 29.2233 36.8416 27.7908 36.8916 27.4075C36.9525 26.2595 36.6666 25.1198 36.0716 24.1392C36.0716 23.8366 36.0516 24.0383 36.0016 23.9072Z" fill="#F06351"/>
<path d="M34.3016 25.0572C33.8336 24.9893 33.3841 24.8265 32.9802 24.5786C32.5763 24.3307 32.2264 24.0028 31.9516 23.6147C31.927 23.5869 31.9134 23.551 31.9134 23.5138C31.9134 23.4766 31.927 23.4407 31.9516 23.4129C31.9646 23.3995 31.9802 23.3889 31.9974 23.3816C32.0145 23.3743 32.033 23.3705 32.0516 23.3705C32.0702 23.3705 32.0887 23.3743 32.1058 23.3816C32.123 23.3889 32.1386 23.3995 32.1516 23.4129C32.3991 23.7631 32.713 24.0603 33.0752 24.2871C33.4374 24.514 33.8407 24.666 34.2616 24.7344C34.5946 24.7091 34.9169 24.6045 35.202 24.4292C35.4871 24.2538 35.7269 24.0127 35.9016 23.7256L36.0416 23.534L36.1416 23.7559C36.1416 23.7559 36.5216 24.5226 37.1416 24.5629C37.7616 24.6033 38.2016 24.1392 38.7716 23.2616C38.7928 23.2295 38.8258 23.2072 38.8633 23.1997C38.9008 23.1921 38.9398 23.1999 38.9716 23.2213C39.0034 23.2427 39.0255 23.276 39.033 23.3138C39.0405 23.3516 39.0328 23.3909 39.0116 23.423C38.3449 24.4116 37.7149 24.8857 37.1216 24.8453C36.8923 24.8147 36.6726 24.7326 36.4788 24.6052C36.285 24.4778 36.122 24.3082 36.0016 24.109C35.8059 24.3846 35.5518 24.6127 35.2577 24.7767C34.9637 24.9408 34.637 25.0366 34.3016 25.0572Z" fill="black"/>
<path d="M36.2616 38.6348C38.3327 38.6348 40.0116 36.9412 40.0116 34.8521C40.0116 32.7629 38.3327 31.0693 36.2616 31.0693C34.1905 31.0693 32.5116 32.7629 32.5116 34.8521C32.5116 36.9412 34.1905 38.6348 36.2616 38.6348Z" fill="#FDC305"/>
<path d="M41.2316 31.7754L38.1016 33.0968L39.2516 27.4176L31.7516 37.2629L34.8816 35.9415L33.7316 41.6308L41.2316 31.7754ZM33.8416 35.6389L38.0016 30.1816L37.1916 34.2165L39.1916 33.3894L35.0016 38.8567L35.8116 34.8218L33.8416 35.6389Z" fill="#111111"/>
<path d="M32.4416 34.156C33.0601 34.156 33.5616 33.6502 33.5616 33.0262C33.5616 32.4022 33.0601 31.8964 32.4416 31.8964C31.823 31.8964 31.3216 32.4022 31.3216 33.0262C31.3216 33.6502 31.823 34.156 32.4416 34.156Z" fill="#111111"/>
<path d="M38.9619 38.2515C39.3982 38.2515 39.7519 37.8947 39.7519 37.4546C39.7519 37.0145 39.3982 36.6577 38.9619 36.6577C38.5256 36.6577 38.1719 37.0145 38.1719 37.4546C38.1719 37.8947 38.5256 38.2515 38.9619 38.2515Z" fill="#111111"/>
<path d="M39.922 36.0626C40.1153 36.0626 40.272 35.9045 40.272 35.7095C40.272 35.5145 40.1153 35.3564 39.922 35.3564C39.7287 35.3564 39.572 35.5145 39.572 35.7095C39.572 35.9045 39.7287 36.0626 39.922 36.0626Z" fill="#111111"/>
<path d="M45.8823 21.345C44.077 22.9865 42.3769 24.7419 40.792 26.6005C39.2134 28.4458 37.4318 30.1041 35.4818 31.5434C35.2618 31.0087 33.8517 30.0101 33.8517 30.0101C33.8517 30.0101 30.7115 27.8413 28.6514 26.1365C27.5378 25.2009 26.4886 24.1898 25.5113 23.1103L23.5112 22.9993C26.3984 27.2534 30.6281 30.3963 35.5118 31.9166C36.3718 31.7754 38.7919 30.0303 40.602 28.6079C42.7435 26.7709 44.749 24.7784 46.6023 22.6463C47.1005 22.0491 47.4868 21.3654 47.7424 20.6288C46.6023 21.0121 45.8823 21.345 45.8823 21.345Z" fill="#F06351"/>
<path d="M65.2227 3.5306L56.7627 13.0531L55.5427 11.0457L63.6927 0L65.2227 3.5306Z" fill="#FDC305"/>
<path d="M62.6531 17.4109L68.1931 13.2649L67.4131 9.49225L62.0131 14.3443L62.6531 17.4109Z" fill="#FDC305"/>
<path d="M59.923 49.8016L66.053 53.0094L69.063 50.649L62.373 47.8749L59.923 49.8016Z" fill="#FDC305"/>
<path d="M1.95001 6.02219L5.02001 2.63281L14.31 11.7115L13.09 14.0114L1.95001 6.02219Z" fill="#FDC305"/>
<path d="M7.38 16.4223L2.68 13.265L0.279999 17.1688L5.43 19.5898L7.38 16.4223Z" fill="#FDC305"/>
<path d="M13.91 53.0094L9.35999 56.3887L12.16 60L16.18 55.9448L13.91 53.0094Z" fill="#FDC305"/>
<path d="M25.9313 28.2448C25.9313 28.2448 22.1211 26.7922 20.721 26.3988C20.0636 26.1087 19.3377 26.0144 18.6289 26.127C17.9201 26.2396 17.258 26.5544 16.7208 27.0343C16.1728 27.5183 15.7346 28.1157 15.4361 28.7859C15.1375 29.4561 14.9856 30.1833 14.9907 30.918C15.2021 31.3868 15.3631 31.8772 15.4708 32.3806C15.5208 32.8648 14.2707 32.8144 13.4707 32.8144C12.6706 32.8144 12.5506 31.3618 13.1807 29.657C13.6722 28.3462 14.2814 27.0834 15.0007 25.8843C9.55047 28.7492 0 35.3665 0 35.3665C2.73182 35.2003 5.47292 35.2814 8.1904 35.6086C13.4407 36.1432 13.1907 40.3194 13.1907 40.3194C15.0373 39.8059 16.9192 39.4317 18.8209 39.1997C20.941 39.0585 21.091 41.3383 21.091 41.3383L21.6211 45.232C22.4259 44.3537 23.3134 43.5564 24.2712 42.8514C25.5057 41.8546 27.0776 41.384 28.6514 41.54V41.54L25.9313 28.2448Z" fill="#F06351"/>
</svg>

<svg width="71" height="60" fill="none" xmlns="http://www.w3.org/2000/svg"><path d="M59.882 24.21a25.806 25.806 0 0 0-8.052-10.552 25.493 25.493 0 0 0-12.193-5.105 25.409 25.409 0 0 0-13.093 1.699 25.636 25.636 0 0 0-10.515 8.05 25.952 25.952 0 0 0-5.144 12.264 26.041 26.041 0 0 0 1.594 13.218 25.816 25.816 0 0 0 7.91 10.662 25.5 25.5 0 0 0 12.122 5.272c-.58-2.109-1.17-4.439-1.69-6.91 1.513.99 3.105 1.85 4.76 2.572 0 0 .12 2.179.28 4.61a25.267 25.267 0 0 0 5.33-.474 2.18 2.18 0 0 1 0-.767c.29-1.886 1.09-5.286 1.25-7.475a15.338 15.338 0 0 0 2.9-3.742l-.06.444c-.55 4.297-1.7 8.887-2.4 10.158-.226.42-.505.81-.83 1.16a25.549 25.549 0 0 0 9.941-4.808 25.817 25.817 0 0 0 7.021-8.573 26.063 26.063 0 0 0 .87-21.703Zm-1.47 3.823c-.44.434-1.35.726-1.5-.585-.15-1.311-.19-2.23-.19-2.23s-1.93-3.46-2.65-3.5c-.72-.04-5.83 3.5-7.18 5.044-1.17 1.301-1.4 1.21-1.4 3.5 0 1.725.22 8.242.1 13.225l-8.15 2.189a63.52 63.52 0 0 1-7.801 1.735l-1-5.881h-.14l-2.57-13.285s-3.81-1.453-5.21-1.846a3.73 3.73 0 0 0-4 .635 5.112 5.112 0 0 0-1.286 1.752 5.153 5.153 0 0 0-.445 2.132c.212.469.373.96.48 1.463.05.484-1.2.433-2 .433s-.92-1.452-.29-3.157A23.1 23.1 0 0 1 15 25.884a11.974 11.974 0 0 1 2.07-2.915s.14-.343 1.25-.242c1.11.1 7.28.434 7.28.434l.05-2.29a141.559 141.559 0 0 1 20.242-1.352v1.846a22.362 22.362 0 0 1 8.14-2.017.904.904 0 0 1 .77.393c.34.434 2.41 3.026 2.65 3.4a28.28 28.28 0 0 1 1.83 3.026 6.321 6.321 0 0 1-.87 1.856v.01Z" fill="#FDC305"/><path d="M56.463 21.86c.47.605.88 1.14 1 1.3.672.97 1.283 1.98 1.83 3.027-.19.64-.48 1.247-.86 1.796-.44.433-1.35.726-1.5-.585-.15-1.312-.21-2.18-.21-2.18s-1.93-3.46-2.65-3.5c-.72-.04-5.83 3.5-7.18 5.044-1.17 1.301-1.4 1.21-1.4 3.5 0 1.513.17 6.708.13 11.328 1.81.202 4.47.707 5.27 1.897 0 0-.29-7.243 7.81-3.45 0 0 .28-9.876 11.46-7.344a43.78 43.78 0 0 0-13.7-10.833ZM45.932 19.52a92.02 92.02 0 0 0-1.4-16.675s-.15-1.312-.87-.242a14.475 14.475 0 0 0-1.2 4.034 70.276 70.276 0 0 0-12.82.343c-.82-2.774-2.22-4.034-2.89-3.702-.67.333-.75 3.31-.75 3.31l-.33 14.283a141.56 141.56 0 0 1 20.26-1.352Z" fill="#F06351"/><path d="M45.352 47.532c.13-1.08.2-2.512.24-4.095l-8.15 2.188a63.513 63.513 0 0 1-7.8 1.786l1.11 5.044c0 .11 0 .221.07.333 1.512.99 3.104 1.85 4.76 2.572a42.347 42.347 0 0 0 6.88-4.166v.06a15.334 15.334 0 0 0 2.89-3.722Z" fill="#E55645"/><path d="M32.002 16.362c-.05-.101 1 .686 1.41.928.41.242.61.424.61.595 0 .171-.26.343-.62.343s-.92-.121-1-.262c-.08-.142.6 0 .94 0h.29a8.112 8.112 0 0 1-1.63-1.604ZM39.502 16.473s-1 1.29-1.09 1.351c-.09.061-.17.343.19.293a8.026 8.026 0 0 0 1.22-.283c.11-.06.07-.201-.12-.181-.19.02-.68.05-1 .11l.85-1.28s.03-.121-.05-.01ZM36.362 22.636c.463-.206.846-.56 1.09-1.009.28-.665 0-.918-.44-1.008a2.432 2.432 0 0 0-1.75.343c-.39.373-.34.736 0 1.008.337.268.707.491 1.1.666Z" fill="#000"/><path d="M36.002 23.907c-.115.229-.271.434-.46.605a1.721 1.721 0 0 1-1 .384 2.167 2.167 0 0 1-1.54-.444 2.004 2.004 0 0 1-.53-.454 1 1 0 0 0-.36-.252s.75 4.146 2.57 4.812c1.82.665 2.16-.767 2.21-1.15a5.718 5.718 0 0 0-.82-3.269c0-.302-.02-.1-.07-.232Z" fill="#F06351"/><path d="M34.302 25.057a3.482 3.482 0 0 1-2.35-1.442.152.152 0 0 1 0-.202.14.14 0 0 1 .2 0 3.232 3.232 0 0 0 2.11 1.321 2.099 2.099 0 0 0 1.64-1.008l.14-.192.1.222s.38.767 1 .807c.62.04 1.06-.424 1.63-1.301a.144.144 0 0 1 .261.052.147.147 0 0 1-.021.109c-.667.989-1.297 1.463-1.89 1.422a1.542 1.542 0 0 1-1.12-.736 2.267 2.267 0 0 1-1.7.948Z" fill="#000"/><path d="M36.262 38.635c2.07 0 3.75-1.694 3.75-3.783 0-2.09-1.68-3.783-3.75-3.783-2.072 0-3.75 1.694-3.75 3.783 0 2.09 1.678 3.783 3.75 3.783Z" fill="#FDC305"/><path d="m41.232 31.775-3.13 1.322 1.15-5.68-7.5 9.846 3.13-1.322-1.15 5.69 7.5-9.856Zm-7.39 3.864 4.16-5.457-.81 4.035 2-.828-4.19 5.468.81-4.035-1.97.817ZM32.442 34.156c.618 0 1.12-.506 1.12-1.13 0-.624-.502-1.13-1.12-1.13-.619 0-1.12.506-1.12 1.13 0 .624.501 1.13 1.12 1.13ZM38.962 38.252c.436 0 .79-.357.79-.797a.793.793 0 0 0-.79-.797.793.793 0 0 0-.79.797c0 .44.354.797.79.797ZM39.922 36.063c.193 0 .35-.159.35-.354a.352.352 0 0 0-.35-.353.352.352 0 0 0-.35.353c0 .195.157.354.35.354Z" fill="#111"/><path d="M45.882 21.345a57.738 57.738 0 0 0-5.09 5.256 31.987 31.987 0 0 1-5.31 4.942c-.22-.534-1.63-1.533-1.63-1.533s-3.14-2.169-5.2-3.873a32.022 32.022 0 0 1-3.14-3.027l-2-.11a22.646 22.646 0 0 0 12 8.917c.86-.142 3.28-1.887 5.09-3.31a57.895 57.895 0 0 0 6-5.96 6.45 6.45 0 0 0 1.14-2.018c-1.14.383-1.86.716-1.86.716Z" fill="#F06351"/><path d="m65.223 3.53-8.46 9.523-1.22-2.007L63.693 0l1.53 3.53ZM62.653 17.41l5.54-4.145-.78-3.773-5.4 4.852.64 3.067ZM59.923 49.802l6.13 3.207 3.01-2.36-6.69-2.774-2.45 1.927ZM1.95 6.022l3.07-3.39 9.29 9.08-1.22 2.3-11.14-7.99ZM7.38 16.422l-4.7-3.157-2.4 3.904 5.15 2.42 1.95-3.167ZM13.91 53.01l-4.55 3.379L12.16 60l4.02-4.055-2.27-2.936Z" fill="#FDC305"/><path d="M25.931 28.245s-3.81-1.453-5.21-1.846a3.73 3.73 0 0 0-4 .635 5.11 5.11 0 0 0-1.285 1.752 5.152 5.152 0 0 0-.445 2.132c.211.469.372.96.48 1.463.05.484-1.2.433-2 .433s-.92-1.452-.29-3.157A23.1 23.1 0 0 1 15 25.884C9.55 28.75 0 35.367 0 35.367a45.433 45.433 0 0 1 8.19.242c5.25.534 5 4.71 5 4.71a38.348 38.348 0 0 1 5.63-1.12c2.121-.14 2.271 2.14 2.271 2.14l.53 3.893a18.342 18.342 0 0 1 2.65-2.38 6.024 6.024 0 0 1 4.38-1.312l-2.72-13.295Z" fill="#F06351"/></svg>
